X: 23
T:Cuckoo's Nest, Longborough 2
M:4/4
L:1/8
R:Hornpipe
A:Longborough
P:A(AB2)4A
K:G
P:A
|:B2B>A G2g2|d2d>B c2Bc|dcBA GFGA|B2G2 G4:|
P:B
  d2d2  d2ed|c2A2  A2AB|c2c2 c2dc|B2G2 G4 |
  B2B>A G2g2|d2d>B c2Bc|dcBA GFGA|B2G2 G4||
